X:1
T:Title
%%score 1 { 2 | 3 }
L:1/8
Q:1/4=106
M:4/4
K:D
V:1 treble nm="Grand Piano, Unnamed-000"
V:2 bass nm="Choir Pad, Tallis' Ordinal, CM"
V:3 bass 
V:1
 [A,D]2 [DF]2 [DG]2 [CA]2 | [DA]2 [DB]2 [DB]2 [DA]2 | [EA]2 [Dd]2 [Ec]2 [FB]2 | [EB]2 [CA]6 | %4
w: By~Thomas~Tallis,~circa~1567 * * *||||
 [A,D]2 [DF]2 [DG]2 [CA]2 | [DA]2 [DB]2 [DB]2 [DA]2 | D2 [DG]2 [DF]2 [DE]2 | [CE]2 D6- | %8
w: ||||
 D2 z2 z4 |] %9
w: |
V:2
 F,2 A,2 G,2 E,2 | F,2 G,2 G,2 F,2 | E,2 ^G,2 A,2 A,2 | ^G,2 A,6 | F,2 A,2 G,2 E,2 | %5
 F,2 G,2 G,2 F,2 | F,2 B,2 A,2 A,2 | A,2 F,6- | F,2 z2 z4 |] %9
V:3
 D,2 D,2 B,,2 A,,2 | D,2 G,,2 B,,2 D,2 | C,2 B,,2 C,2 D,2 | E,2 A,,6 | D,2 D,2 B,,2 A,,2 | %5
 D,2 G,,2 B,,2 D,2 | B,,2 G,,2 D,2 A,,2 | A,,2 D,6- | D,2 z2 z4 |] %9

